X:25
M:6/8
L:1/8
K:D
| DFA AFA | Bcd AFD | DFA AFA | B2c d3 | 
| def e2d | Bcd AFA | def edB | Bcd A3 | 
def e2d | Bcd A2F | DFA AFA | B2c d3 :|| 

